img/slide11/1500.svg

<svg viewBox="0 0 260 753" xmlns="http://www.w3.org/2000/svg"><g fill="none" fill-rule="nonzero"><path d="m-134.926246 496.5v-239h-38.277724l-72.79603 51.675676 22.898282 35.187055 40.328317-30.087482v182.224751zm118.626292 2.5c16.07336249 0 30.6362857-3.37292 43.6887672-10.118763 13.0524814-6.745843 23.3690739-16.269385 30.9497724-28.570626 7.5806984-12.30124 11.371049-26.161395 11.371049-41.580463 0-9.296792-1.2824492-18.026705-3.8473474-26.18974-2.5648983-8.163036-6.1272561-15.305693-10.6870762-21.427969-4.55982-6.122277-9.9461063-11.394238-16.158859-15.815882-6.2127527-4.421645-13.0809812-7.766223-20.6046828-10.033732s-15.3323927-3.401265-23.42607081-3.401265c-8.54966089 0-18.58126389 1.700633-30.09480629 5.101897l2.7358915-47.107519h89.7714393v-42.855938h-131.3227913l-7.3527083 126.356992 25.4779894 9.353479c10.2595931-8.163036 22.2861152-12.244554 36.079569-12.244554 4.9018064 0 9.77511312.793629 14.61992008 2.380886 4.84480697 1.587256 9.2621335 3.911454 13.25197438 6.972593 3.98984084 3.061138 7.21021484 7.02928 9.66111684 11.904427 2.4509019 4.875147 3.6763541 10.317171 3.6763541 16.326072 0 10.657297-3.8188476 19.61396-11.4565455 26.869993-7.63769797 7.256032-17.21331817 10.884047-28.7268606 10.884047-19.8352133 0-35.3385992-7.369406-46.5101553-22.108222l-34.1986435 27.550246c9.9176066 12.35793 22.0581251 21.739751 36.4215554 28.145468 14.3634303 6.405716 29.9238131 9.608573 46.6811484 9.608573zm209.006483 0c19.002591 0 35.573303-5.132524 49.712134-15.397569 14.138832-10.265046 24.912622-24.58507 32.321371-42.96007s11.113122-39.755788 11.113122-64.142361c0-19.055556-2.262212-36.296295-6.786639-51.722222-4.524428-15.425927-10.858624-28.299768-19.002591-38.621528s-17.956316-18.261573-29.437049-23.819444c-11.480732-5.557872-24.120848-8.336806-37.920348-8.336806-14.251943 0-27.203112 2.949073-38.853511 8.847222s-21.434469 14.206597-29.352216 24.925347-14.025722 23.649306-18.323926 38.791667c-4.298205 15.142361-6.4473079 31.787615-6.4473079 49.935764 0 19.055556 2.2622119 36.296295 6.7866399 51.722222 4.524427 15.425927 10.858623 28.299768 19.00259 38.621528 8.143968 10.32176 17.92804 18.261573 29.352216 23.819444 11.424176 5.557872 24.036016 8.336806 37.835515 8.336806zm1.170943-44c-9.342067 0-17.430929-3.178598-24.266587-9.535792-6.835659-6.357193-12.019366-15.438902-15.551123-27.245119-3.531758-11.806218-5.297636-25.712581-5.297636-41.719089 0-25.088213 4.01595-44.443601 12.047848-58.066161 8.031899-13.622559 19.054398-20.433839 33.067498-20.433839 14.127029 0 25.149528 6.981562 33.067498 20.944685 7.91797 13.963124 11.876957 33.14823 11.876957 57.555315 0 25.088213-3.958987 44.443601-11.876957 58.066161-7.91797 13.622559-18.940469 20.433839-33.067498 20.433839zm219.975901 44c19.002591 0 35.573303-5.132524 49.712134-15.397569 14.138832-10.265046 24.912622-24.58507 32.321371-42.96007s11.113122-39.755788 11.113122-64.142361c0-19.055556-2.262212-36.296295-6.786639-51.722222-4.524428-15.425927-10.858624-28.299768-19.002591-38.621528s-17.956316-18.261573-29.437049-23.819444c-11.480733-5.557872-24.120849-8.336806-37.920348-8.336806-14.251943 0-27.203112 2.949073-38.853511 8.847222s-21.434469 14.206597-29.352216 24.925347-14.025722 23.649306-18.323927 38.791667c-4.298204 15.142361-6.447307 31.787615-6.447307 49.935764 0 19.055556 2.262212 36.296295 6.786639 51.722222 4.524428 15.425927 10.858624 28.299768 19.002591 38.621528s17.92804 18.261573 29.352216 23.819444c11.424175 5.557872 24.036016 8.336806 37.835515 8.336806zm-.830386-44c-9.342067 0-17.430929-3.178598-24.266587-9.535792-6.835659-6.357193-12.019366-15.438902-15.551123-27.245119-3.531758-11.806218-5.297636-25.712581-5.297636-41.719089 0-25.088213 4.01595-44.443601 12.047848-58.066161 8.031899-13.622559 19.054398-20.433839 33.067498-20.433839 14.127029 0 25.149528 6.981562 33.067498 20.944685 7.91797 13.963124 11.876957 33.14823 11.876957 57.555315 0 25.088213-3.958987 44.443601-11.876957 58.066161-7.91797 13.622559-18.940469 20.433839-33.067498 20.433839z" opacity=".2" stroke="#fff" transform="matrix(0 -1 1 0 -246 507)"/><path d="m51.1708053 272.31612v-68.681089h-6.9203992l-19.2504061 14.166086 4.0937573 6.252616 13.6945927-10.307048v58.569435zm35.9178464.68388c4.4186588 0 8.4393133-.936264 12.0619633-2.808793 3.62265-1.872528 6.489905-4.518492 8.601764-7.937892 2.111858-3.4194 3.167788-7.29472 3.167788-11.62596 0-2.247034-.268044-4.380088-.804131-6.399162s-1.28336-3.826471-2.241819-5.422192c-.95846-1.59572-2.111859-3.036753-3.4602-4.323098s-2.842887-2.352873-4.4836387-3.199581c-1.6407522-.846709-3.4033416-1.489882-5.2877698-1.929519s-3.8338364-.659455-5.8482247-.659455c-3.1190531 0-6.5792527.651314-10.3805987 1.953942l1.0721745-19.295185h28.3151544v-7.718074h-36.2102577l-1.9981434 34.731333 4.8735206 1.514306c2.9566027-2.50756 6.9853792-3.76134 12.0863309-3.76134 2.1118587 0 4.1181249.317516 6.0187979.952547 1.900673.635032 3.5820376 1.546872 5.0440937 2.73552 1.4620562 1.188648 2.631701 2.711096 3.508935 4.567341.877234 1.856246 1.31585 3.907886 1.31585 6.15492 0 2.73552-.714783 5.226797-2.144349 7.473831-1.4295655 2.247034-3.3627289 3.997441-5.7994891 5.251221-2.4367603 1.253781-5.1171966 1.88067-8.0413089 1.88067-3.4439548 0-6.5548851-.757153-9.3327918-2.271458-2.7779067-1.514306-4.9628682-3.557804-6.5548852-6.130496l-6.2381063 4.78716c2.3717803 3.582228 5.5720583 6.391021 9.6008355 8.426378 4.0287772 2.035358 8.4149457 3.053036 13.1585055 3.053036zm59.5056853-.048849c4.028778 0 7.667672-.871132 10.916686-2.613398s5.953818-4.16027 8.114412-7.254013c2.160594-3.093742 3.817591-6.773668 4.970991-11.039776s1.7301-8.939288 1.7301-14.01954c0-5.536171-.641681-10.526866-1.925041-14.972086s-3.070318-8.125145-5.360872-11.039777c-2.290555-2.914631-5.003482-5.145382-8.13878-6.692254s-6.57113-2.320307-10.307496-2.320307c-3.996286 0-7.627059.871133-10.892318 2.613398-3.265259 1.742266-5.970063 4.160271-8.114412 7.254013-2.144349 3.093743-3.801346 6.789951-4.970991 11.088625s-1.754467 8.988137-1.754467 14.068388c0 5.503606.64168 10.469877 1.925041 14.898814 1.28336 4.428937 3.070318 8.100721 5.360872 11.015352 2.290555 2.914632 5.003482 5.145383 8.138779 6.692254 3.135298 1.546872 6.57113 2.320307 10.307496 2.320307zm.048736-7.815771c-5.198423 0-9.381527-2.39358-12.549316-7.180739-3.167788-4.78716-4.751682-11.430566-4.751682-19.930217 0-8.369388 1.527036-14.996511 4.581109-19.881367 3.054073-4.884857 7.294036-7.327286 12.719889-7.327286 5.165931 0 9.324669 2.385438 12.476212 7.156316 3.151544 4.770877 4.727315 11.454989 4.727315 20.052337 0 5.47104-.666048 10.233776-1.998143 14.288207-1.332096 4.054431-3.297749 7.205164-5.89696 9.452198s-5.702019 3.370551-9.308424 3.370551zm62.624739 7.815771c4.028777 0 7.667672-.871132 10.916686-2.613398s5.953817-4.16027 8.114411-7.254013c2.160594-3.093742 3.817591-6.773668 4.970991-11.039776s1.7301-8.939288 1.7301-14.01954c0-5.536171-.64168-10.526866-1.925041-14.972086-1.28336-4.44522-3.070318-8.125145-5.360872-11.039777-2.290555-2.914631-5.003482-5.145382-8.13878-6.692254-3.135297-1.546872-6.571129-2.320307-10.307495-2.320307-3.996287 0-7.62706.871133-10.892319 2.613398-3.265259 1.742266-5.970063 4.160271-8.114412 7.254013-2.144349 3.093743-3.801346 6.789951-4.97099 11.088625-1.169645 4.298674-1.754468 8.988137-1.754468 14.068388 0 5.503606.641681 10.469877 1.925041 14.898814s3.070318 8.100721 5.360872 11.015352c2.290555 2.914632 5.003482 5.145383 8.13878 6.692254 3.135298 1.546872 6.57113 2.320307 10.307496 2.320307zm.048735-7.815771c-5.198422 0-9.381527-2.39358-12.549316-7.180739-3.167788-4.78716-4.751682-11.430566-4.751682-19.930217 0-8.369388 1.527036-14.996511 4.581109-19.881367 3.054073-4.884857 7.294036-7.327286 12.719889-7.327286 5.165932 0 9.324669 2.385438 12.476212 7.156316 3.151544 4.770877 4.727315 11.454989 4.727315 20.052337 0 5.47104-.666048 10.233776-1.998143 14.288207-1.332096 4.054431-3.297749 7.205164-5.89696 9.452198s-5.702019 3.370551-9.308424 3.370551z" fill="#fff" transform="matrix(0 -1 1 0 -108 368)"/></g></svg>

<?xml version="1.0" encoding="UTF-8"?>
<svg viewBox="0 0 260 753" version="1.1" xmlns="http://www.w3.org/2000/svg" xmlns:xlink="http://www.w3.org/1999/xlink">
    <title>outlines /vertical 1500</title>
    <g id="outlines-/vertical-1500" stroke="none" stroke-width="1" fill="none" fill-rule="evenodd">
        <path d="M-134.926246,496.5 L-134.926246,257.5 L-173.20397,257.5 L-246,309.175676 L-223.101718,344.362731 L-182.773401,314.275249 L-182.773401,496.5 L-134.926246,496.5 Z M-16.299954,499 C-0.22659151,499 14.3363317,495.62708 27.3888132,488.881237 C40.4412946,482.135394 50.7578871,472.611852 58.3385856,460.310611 C65.919284,448.009371 69.7096346,434.149216 69.7096346,418.730148 C69.7096346,409.433356 68.4271854,400.703443 65.8622872,392.540408 C63.2973889,384.377372 59.7350311,377.234715 55.175211,371.112439 C50.615391,364.990162 45.2291047,359.718201 39.016352,355.296557 C32.8035993,350.874912 25.9353708,347.530334 18.4116692,345.262825 C10.8879676,342.995316 3.0792765,341.86156 -5.01440161,341.86156 C-13.5640625,341.86156 -23.5956655,343.562193 -35.1092079,346.963457 L-32.3733164,299.855938 L57.3981229,299.855938 L57.3981229,257 L-73.9246684,257 L-81.2773767,383.356992 L-55.7993873,392.710471 C-45.5397942,384.547435 -33.5132721,380.465917 -19.7198183,380.465917 C-14.8180119,380.465917 -9.94470518,381.259546 -5.09989822,382.846803 C-0.255091249,384.434059 4.16223528,386.758257 8.15207616,389.819396 C12.141917,392.880534 15.362291,396.848676 17.813193,401.723823 C20.2640949,406.59897 21.4895471,412.040994 21.4895471,418.049895 C21.4895471,428.707192 17.6706995,437.663855 10.0330016,444.919888 C2.39530363,452.17592 -7.18031657,455.803935 -18.693859,455.803935 C-38.5290723,455.803935 -54.0324582,448.434529 -65.2040143,433.695713 L-99.4026578,461.245959 C-89.4850512,473.603889 -77.3445327,482.98571 -62.9811024,489.391427 C-48.6176721,495.797143 -33.0572893,499 -16.299954,499 Z M192.706529,499 C211.70912,499 228.279832,493.867476 242.418663,483.602431 C256.557495,473.337385 267.331285,459.017361 274.740034,440.642361 C282.148783,422.267361 285.853156,400.886573 285.853156,376.5 C285.853156,357.444444 283.590944,340.203705 279.066517,324.777778 C274.542089,309.351851 268.207893,296.47801 260.063926,286.15625 C251.919959,275.83449 242.10761,267.894677 230.626877,262.336806 C219.146145,256.778934 206.506029,254 192.706529,254 C178.454586,254 165.503417,256.949073 153.853018,262.847222 C142.202619,268.745371 132.418549,277.053819 124.500802,287.772569 C116.583055,298.491319 110.47508,311.421875 106.176876,326.564236 C101.878671,341.706597 99.7295681,358.351851 99.7295681,376.5 C99.7295681,395.555556 101.99178,412.796295 106.516208,428.222222 C111.040635,443.648149 117.374831,456.52199 125.518798,466.84375 C133.662766,477.16551 143.446838,485.105323 154.871014,490.663194 C166.29519,496.221066 178.90703,499 192.706529,499 Z M193.877472,455 C184.535405,455 176.446543,451.821402 169.610885,445.464208 C162.775226,439.107015 157.591519,430.025306 154.059762,418.219089 C150.528004,406.412871 148.762126,392.506508 148.762126,376.5 C148.762126,351.411787 152.778076,332.056399 160.809974,318.433839 C168.841873,304.81128 179.864372,298 193.877472,298 C208.004501,298 219.027,304.981562 226.94497,318.944685 C234.86294,332.907809 238.821927,352.092915 238.821927,376.5 C238.821927,401.588213 234.86294,420.943601 226.94497,434.566161 C219.027,448.18872 208.004501,455 193.877472,455 Z M413.853373,499 C432.855964,499 449.426676,493.867476 463.565507,483.602431 C477.704339,473.337385 488.478129,459.017361 495.886878,440.642361 C503.295627,422.267361 507,400.886573 507,376.5 C507,357.444444 504.737788,340.203705 500.213361,324.777778 C495.688933,309.351851 489.354737,296.47801 481.21077,286.15625 C473.066803,275.83449 463.254454,267.894677 451.773721,262.336806 C440.292988,256.778934 427.652872,254 413.853373,254 C399.60143,254 386.650261,256.949073 374.999862,262.847222 C363.349463,268.745371 353.565393,277.053819 345.647646,287.772569 C337.729899,298.491319 331.621924,311.421875 327.323719,326.564236 C323.025515,341.706597 320.876412,358.351851 320.876412,376.5 C320.876412,395.555556 323.138624,412.796295 327.663051,428.222222 C332.187479,443.648149 338.521675,456.52199 346.665642,466.84375 C354.809609,477.16551 364.593682,485.105323 376.017858,490.663194 C387.442033,496.221066 400.053874,499 413.853373,499 Z M413.022987,455 C403.68092,455 395.592058,451.821402 388.7564,445.464208 C381.920741,439.107015 376.737034,430.025306 373.205277,418.219089 C369.673519,406.412871 367.907641,392.506508 367.907641,376.5 C367.907641,351.411787 371.923591,332.056399 379.955489,318.433839 C387.987388,304.81128 399.009887,298 413.022987,298 C427.150016,298 438.172515,304.981562 446.090485,318.944685 C454.008455,332.907809 457.967442,352.092915 457.967442,376.5 C457.967442,401.588213 454.008455,420.943601 446.090485,434.566161 C438.172515,448.18872 427.150016,455 413.022987,455 Z" id="1500" stroke="#FFFFFF" opacity="0.200000003" fill-rule="nonzero" transform="translate(130.500000, 376.500000) rotate(-90.000000) translate(-130.500000, -376.500000) "></path>
        <path d="M51.1708053,272.31612 L51.1708053,203.635031 L44.2504061,203.635031 L25,217.801117 L29.0937573,224.053733 L42.78835,213.746685 L42.78835,272.31612 L51.1708053,272.31612 Z M87.0886517,273 C91.5073105,273 95.527965,272.063736 99.150615,270.191207 C102.773265,268.318679 105.64052,265.672715 107.752379,262.253315 C109.864237,258.833915 110.920167,254.958595 110.920167,250.627355 C110.920167,248.380321 110.652123,246.247267 110.116036,244.228193 C109.579949,242.209119 108.832676,240.401722 107.874217,238.806001 C106.915757,237.210281 105.762358,235.769248 104.414017,234.482903 C103.065676,233.196558 101.57113,232.13003 99.9303783,231.283322 C98.2896261,230.436613 96.5270367,229.79344 94.6426085,229.353803 C92.7581803,228.914166 90.8087721,228.694348 88.7943838,228.694348 C85.6753307,228.694348 82.2151311,229.345662 78.4137851,230.64829 L79.4859596,211.353105 L107.801114,211.353105 L107.801114,203.635031 L71.5908563,203.635031 L69.5927129,238.366364 L74.4662335,239.88067 C77.4228362,237.37311 81.4516127,236.11933 86.5525644,236.11933 C88.6644231,236.11933 90.6706893,236.436846 92.5713623,237.071877 C94.4720353,237.706909 96.1533999,238.618749 97.615456,239.807397 C99.0775122,240.996045 100.247157,242.518493 101.124391,244.374738 C102.001625,246.230984 102.440241,248.282624 102.440241,250.529658 C102.440241,253.265178 101.725458,255.756455 100.295892,258.003489 C98.8663265,260.250523 96.9331631,262.00093 94.4964029,263.25471 C92.0596426,264.508491 89.3792063,265.13538 86.455094,265.13538 C83.0111392,265.13538 79.9002089,264.378227 77.1223022,262.863922 C74.3443955,261.349616 72.159434,259.306118 70.567417,256.733426 L64.3293107,261.520586 C66.701091,265.102814 69.901369,267.911607 73.9301462,269.946964 C77.9589234,271.982322 82.3450919,273 87.0886517,273 Z M146.594337,272.951151 C150.623115,272.951151 154.262009,272.080019 157.511023,270.337753 C160.760037,268.595487 163.464841,266.177483 165.625435,263.08374 C167.786029,259.989998 169.443026,256.310072 170.596426,252.043964 C171.749826,247.777856 172.326526,243.104676 172.326526,238.024424 C172.326526,232.488253 171.684845,227.497558 170.401485,223.052338 C169.118125,218.607118 167.331167,214.927193 165.040613,212.012561 C162.750058,209.09793 160.037131,206.867179 156.901833,205.320307 C153.766535,203.773435 150.330703,203 146.594337,203 C142.598051,203 138.967278,203.871133 135.702019,205.613398 C132.43676,207.355664 129.731956,209.773669 127.587607,212.867411 C125.443258,215.961154 123.786261,219.657362 122.616616,223.956036 C121.446971,228.25471 120.862149,232.944173 120.862149,238.024424 C120.862149,243.52803 121.503829,248.494301 122.78719,252.923238 C124.07055,257.352175 125.857508,261.023959 128.148062,263.93859 C130.438617,266.853222 133.151544,269.083973 136.286841,270.630844 C139.422139,272.177716 142.857971,272.951151 146.594337,272.951151 Z M146.643073,265.13538 C141.44465,265.13538 137.261546,262.7418 134.093757,257.954641 C130.925969,253.167481 129.342075,246.524075 129.342075,238.024424 C129.342075,229.655036 130.869111,223.027913 133.923184,218.143057 C136.977257,213.2582 141.21722,210.815771 146.643073,210.815771 C151.809004,210.815771 155.967742,213.201209 159.119285,217.972087 C162.270829,222.742964 163.8466,229.427076 163.8466,238.024424 C163.8466,243.495464 163.180552,248.2582 161.848457,252.312631 C160.516361,256.367062 158.550708,259.517795 155.951497,261.764829 C153.352286,264.011863 150.249478,265.13538 146.643073,265.13538 Z M209.267812,272.951151 C213.296589,272.951151 216.935484,272.080019 220.184498,270.337753 C223.433512,268.595487 226.138315,266.177483 228.298909,263.08374 C230.459503,259.989998 232.1165,256.310072 233.2699,252.043964 C234.4233,247.777856 235,243.104676 235,238.024424 C235,232.488253 234.35832,227.497558 233.074959,223.052338 C231.791599,218.607118 230.004641,214.927193 227.714087,212.012561 C225.423532,209.09793 222.710605,206.867179 219.575307,205.320307 C216.44001,203.773435 213.004178,203 209.267812,203 C205.271525,203 201.640752,203.871133 198.375493,205.613398 C195.110234,207.355664 192.40543,209.773669 190.261081,212.867411 C188.116732,215.961154 186.459735,219.657362 185.290091,223.956036 C184.120446,228.25471 183.535623,232.944173 183.535623,238.024424 C183.535623,243.52803 184.177304,248.494301 185.460664,252.923238 C186.744024,257.352175 188.530982,261.023959 190.821536,263.93859 C193.112091,266.853222 195.825018,269.083973 198.960316,270.630844 C202.095614,272.177716 205.531446,272.951151 209.267812,272.951151 Z M209.316547,265.13538 C204.118125,265.13538 199.93502,262.7418 196.767231,257.954641 C193.599443,253.167481 192.015549,246.524075 192.015549,238.024424 C192.015549,229.655036 193.542585,223.027913 196.596658,218.143057 C199.650731,213.2582 203.890694,210.815771 209.316547,210.815771 C214.482479,210.815771 218.641216,213.201209 221.792759,217.972087 C224.944303,222.742964 226.520074,229.427076 226.520074,238.024424 C226.520074,243.495464 225.854026,248.2582 224.521931,252.312631 C223.189835,256.367062 221.224182,259.517795 218.624971,261.764829 C216.02576,264.011863 212.922952,265.13538 209.316547,265.13538 Z" id="1500" fill="#FFFFFF" fill-rule="nonzero" transform="translate(130.000000, 238.000000) rotate(-90.000000) translate(-130.000000, -238.000000) "></path>
    </g>
</svg>
